dist/svgs/carbon-icons/svg/visibility-off.svg

<?xml version="1.0" encoding="UTF-8"?>
<svg width="16px" height="16px" viewBox="0 0 16 16" version="1.1" xmlns="http://www.w3.org/2000/svg" xmlns:xlink="http://www.w3.org/1999/xlink">
    <!-- Generator: Sketch 50.2 (55047) - http://www.bohemiancoding.com/sketch -->
    <title>visibility-off</title>
    <desc>Created with Sketch.</desc>
    <defs></defs>
    <g id="visibility-off" stroke="none" stroke-width="1" fill="none" fill-rule="evenodd">
        <path d="M11.846495,3.45063931 L15.2934308,0.00636933239 L16.000264,0.713749593 L12.7160756,3.99539801 C13.9772764,4.89734696 15.0927721,6.20730363 16.0625626,7.92526802 C14.0208542,11.641756 11.3333333,13.5 8,13.5 C6.60754267,13.5 5.33343781,13.1757283 4.17768542,12.5271849 L0.703407939,15.9987755 L-0.0034252568,15.2913952 L3.32013778,11.9704025 C2.07119016,11.0433881 0.976031587,9.6950099 0.0346620721,7.92526802 C2.01155402,4.30842267 4.66666667,2.5 8,2.5 C9.39532711,2.5 10.6774921,2.81687977 11.846495,3.45063931 Z M4.91755895,11.7878836 C5.86176069,12.2652266 6.88779857,12.5 8,12.5 C10.7946857,12.5 13.0756579,11.0173384 14.9071989,7.93228597 C14.0410603,6.51500049 13.0736274,5.44591537 11.9977607,4.7131574 L10.4464598,6.26325861 C10.7950302,6.75338641 11,7.35275657 11,8 C11,9.65685425 9.65685425,11 8,11 C7.35192403,11 6.75184455,10.7945026 6.26136781,10.445114 L4.91755895,11.7878836 Z M4.03618732,11.2549068 L5.5543661,9.7379021 C5.20529357,9.24756001 5,8.64775445 5,8 C5,6.34314575 6.34314575,5 8,5 C8.64858701,5 9.2491018,5.20582163 9.73979228,5.55571281 L11.103235,4.19332453 C10.1483658,3.72875087 9.11537159,3.5 8,3.5 C5.20217392,3.5 2.95304924,4.93894478 1.18100508,7.93212341 C2.02330683,9.39672746 2.97259113,10.4999205 4.03618732,11.2549068 Z M6.98397475,9.72306589 C7.28174062,9.8990259 7.62907843,10 8,10 C9.1045695,10 10,9.1045695 10,8 C10,7.62963151 9.8993268,7.2827765 9.7238525,6.98530707 L6.98397475,9.72306589 Z M6.27688494,9.01594204 L9.01727378,6.27767253 C8.71923048,6.10125661 8.37144012,6 8,6 C6.8954305,6 6,6.8954305 6,8 C6,8.37088702 6.10095528,8.71819467 6.27688494,9.01594204 Z" id="hide" fill="#000000" fill-rule="nonzero"></path>
    </g>
</svg>

<svg xmlns="http://www.w3.org/2000/svg" viewBox="0 0 16 16"><path d="M11.846 3.45L15.293.007 16 .714l-3.284 3.281c1.261.902 2.377 2.212 3.347 3.93C14.02 11.642 11.333 13.5 8 13.5c-1.392 0-2.667-.324-3.822-.973L.703 16l-.706-.708 3.323-3.32C2.071 11.042.976 9.694.035 7.924 2.012 4.308 4.667 2.5 8 2.5c1.395 0 2.677.317 3.846.95zm-6.928 8.338c.944.477 1.97.712 3.082.712 2.795 0 5.076-1.483 6.907-4.568-.866-1.417-1.833-2.486-2.91-3.219l-1.55 1.55a3 3 0 01-4.185 4.182l-1.344 1.343zm-.882-.533l1.518-1.517A3 3 0 019.74 5.556l1.364-1.363A7.02 7.02 0 008 3.5c-2.798 0-5.047 1.439-6.819 4.432.842 1.465 1.792 2.568 2.855 3.323zm2.948-1.532a2 2 0 002.74-2.738l-2.74 2.738zm-.707-.707l2.74-2.738a2 2 0 00-2.74 2.738z"/></svg>
